X:103
T:Little Rock Getaway
C:John Baldry
N:From "Bluegrass and Old-Time Mandolin"
L:1/8
Q:1/4=195
M:4/4
K:C
z2 G2 A2 c2 | "C"ec Ge "E7"dB ^Gd | "Am"cA Ec "C7"_BG EB | "F"AF CA "Go"GE ^CG | 
"Dm"FD A,F "F#o"^DC A,D | "C"GF EG "Am"FE DF | "F"ED CE "G"DC B,D | "C"CB, CD "A7"EF GE | 
"Dm"DC B,A, "G"G,2 cd | "C"ec Ge "E7"dB ^Gd | "Am"cA Ec "C7"_BG EB | "F"AF CA "Go"GE ^CG | 
"Dm"FD A,F "F#o"^DC A,D | "C"GF EG "Am"FE DF | "F"ED CE "G"DC B,D | "C"CB, CD "G"ED B,2 | 
"C"(3CCC (3CCC "C7"C2 (3A_B=B | "F"c2 AF C2 (3A_B=B | "F#o"c2 A^F (3^DDD (3DDD | 
"C"ED EF GA GF | "C7"ED CB, C2 (3A_B=B | "F"c2 AF C2 (3A_B=B | "F#o"c2 A^F (3^DDD (3DDD | 
"C"ED EF GA Bc | "G"dc BA G4 | "C"ec Ge "E7"dB ^Gd | "Am"cA Ec "C7"_BG EB | "F"AF CA "Go"GE ^CG | 
"Dm"FD A,F "F#o"^DC A,D | "C"GF EG "Am"FE DF | "F"ED CE "G"DC B,D | "C"CB, CD "G"ED B,2 | 
"C"(3CCC (3CCC C4 | "C"[g2e2] [g2e2] (3"E7"[^gd][gd][gd] (3[gd][gd][gd] | "Am"[e2c2] [e2c2] (3"C7"[e_B][eB][eB] (3[eB][eB][eB] | 
"F"[c2A2] [c2A2] (3"Go"[^cG][cG][cG] (3[cG][cG][cG] | "Dm"[A2F2] [A2F2] (3"F#o"[A^F][AF][AF] [A2F2] | 
"C"GF EG "Am"FE DF | "F"ED CE "G"DC B,D | "C"CB, CD "A7"EF GE | "Dm"DC B,A, "G"G,2 cd | 
"C"[g2e2] [g2e2] "E7"[^gd][gd] z[ec] | "Am"z[e2c2][e_B] "C7"[eB][eB] [eB][eB] | 
"F"[c2A2] [c2A2] "Go"[^cG][cG] z[AF] | "Dm"z[AF] z[A^F] "F#o"[AF][AF] [AF][AF] | 
"C"GF EG "Am"FE DF | "F"ED CE "G"DC B,D | "C"CB, CD "G"ED B,2 | "C"(3CCC (3CCC "C7"C2 ^DE | 
"F"Fc2F (3[cF][cF][cF] [c2F2] | "F#o"^Fc zF (3[cF][cF][cF] [c2F2] | "C"Gc zG c2 E2 | 
(3[EC][EC][EC] (3[EC][EC][EC] "C7"(3[E_B,][EB,][EB,] (3[EB,][EB,][EB,] | "F"A,[AF] zA, (3[AF][AF][AF] [A2F2] | 
"F#o"^Fc zF (3[cF][cF][cF] [c2F2] | "C"Gc zG c2 E2 | "G"(3[DD][DD][DD] (3[DG,][DG,][DG,] (3[DG,][DG,][DG,] [D2G,2] | 
"C"[g2e2] [g2e2] "E7"[^g2d2] [g2d2] | "Am"[a2e2] [a2e2] "C7"[_b2e2] [b2e2] | "F"[a2f2] [a2f2] "Go"[g2e2] [g2e2] | 
"Dm"[f2d2] [f2d2] "F#o"[^f2c2] [f2c2] | "C"gf eg "Am"fe df | "F"ed ce "G"dc Bd | 
"C"c2 cd "G"ed B2 | (3"C"[cG][cG][cG] (3[cG][cG][cG] [c4G4] |: "C"EG ce "E7"dB ^GB | 
"Am"ce gc' "C7"_bg eg | "F"af ^dc "Go"_B^c eg | "Dm"af dA "F#o"c^d ^fa | "C"gf ed "Am"c^c de | 
"F"fe dc "G"Bc ^cd |1 e"C"d cB "A7"AB c^c | "Dm"df dA "G"BG D^D :|2 e"C"d cB A"G"B c^c | 
d"C"^d eg "C7"eg _b2 |] "F"c'2 af c2 a_b | "F#o"c'2 a^f ^d4 | "C"cB cd ea gf | 
ed cB "C7"_B2 (3AB=B | "F"cf cA F2 (3A_B=B | "F#o"c^f cA ^D4 | "C"ED EF G^F GA | 
"G"Bd BA G2 D^D | "C"EG ce "E7"dB ^GB | "Am"ce gc' "C7"_bg eg | "F"af ^dc "Go"_B^c eg | 
"Dm"af dA "F#o"c^d ^fa | "C"gf ed "Am"c^c de | "F"fe dc "G"Bc ^cd | "C"ed cB "G"_B=B cA | 
"C"GD ^DE [E2C2] z2 | z8 | 


